X:55
M:6/8
K:Gmaj
dGG AB/2A/2G|B/2A/2GD EGG|G2G BdB|edB A2B|dGG AB/2A/2G|B/2A/2GD EGG|G2G BdB|AGG G2:|
e2e edB|deg a2b|age gdB|deg age|e2e edB|deg a2b|age gdB|AGG G2:|